site/src/img/greymatter-community-icon.svg

<svg width="198" height="99" viewBox="0 0 198 99" fill="none" xmlns="http://www.w3.org/2000/svg">
<path d="M99 55.4062C112.38 55.4062 124.2 58.6075 133.803 62.7937C142.668 66.7337 148.25 75.5987 148.25 85.2025V90.2917C148.25 94.8062 144.556 98.5 140.042 98.5H57.9583C53.4437 98.5 49.75 94.8062 49.75 90.2917V85.2846C49.75 75.5987 55.3317 66.7337 64.1967 62.8758C73.8004 58.6075 85.6204 55.4062 99 55.4062ZM33.3333 57.4583C42.3625 57.4583 49.75 50.0708 49.75 41.0417C49.75 32.0125 42.3625 24.625 33.3333 24.625C24.3042 24.625 16.9167 32.0125 16.9167 41.0417C16.9167 50.0708 24.3042 57.4583 33.3333 57.4583ZM42.6087 66.4875C39.5717 65.995 36.5346 65.6667 33.3333 65.6667C25.2071 65.6667 17.4913 67.3904 10.5142 70.4275C4.44 73.0542 0.5 78.9642 0.5 85.6129V90.2917C0.5 94.8062 4.19375 98.5 8.70833 98.5H37.4375V85.2846C37.4375 78.4717 39.3254 72.0692 42.6087 66.4875ZM164.667 57.4583C173.696 57.4583 181.083 50.0708 181.083 41.0417C181.083 32.0125 173.696 24.625 164.667 24.625C155.637 24.625 148.25 32.0125 148.25 41.0417C148.25 50.0708 155.637 57.4583 164.667 57.4583ZM197.5 85.6129C197.5 78.9642 193.56 73.0542 187.486 70.4275C180.509 67.3904 172.793 65.6667 164.667 65.6667C161.465 65.6667 158.428 65.995 155.391 66.4875C158.675 72.0692 160.562 78.4717 160.562 85.2846V98.5H189.292C193.806 98.5 197.5 94.8062 197.5 90.2917V85.6129ZM99 0C112.626 0 123.625 10.9992 123.625 24.625C123.625 38.2508 112.626 49.25 99 49.25C85.3742 49.25 74.375 38.2508 74.375 24.625C74.375 10.9992 85.3742 0 99 0Z" fill="#7FA0AD"/>
</svg>

<?xml version="1.0" encoding="utf-8"?>
<!-- Generator: Adobe Illustrator 26.1.0, SVG Export Plug-In . SVG Version: 6.00 Build 0)  -->
<svg version="1.1" id="Layer_1" xmlns="http://www.w3.org/2000/svg" xmlns:xlink="http://www.w3.org/1999/xlink" x="0px" y="0px"
	 viewBox="0 0 198 99" style="enable-background:new 0 0 198 99;" xml:space="preserve">
<style type="text/css">
	.st0{fill:#FFFFFF;}
</style>
<path class="st0" d="M99,55.4c13.4,0,25.2,3.2,34.8,7.4c8.9,3.9,14.4,12.8,14.4,22.4v5.1c0,4.5-3.7,8.2-8.2,8.2H58
	c-4.5,0-8.2-3.7-8.2-8.2v-5c0-9.7,5.6-18.6,14.4-22.4C73.8,58.6,85.6,55.4,99,55.4z M33.3,57.5c9,0,16.4-7.4,16.4-16.4
	c0-9-7.4-16.4-16.4-16.4c-9,0-16.4,7.4-16.4,16.4C16.9,50.1,24.3,57.5,33.3,57.5z M42.6,66.5c-3-0.5-6.1-0.8-9.3-0.8
	c-8.1,0-15.8,1.7-22.8,4.8c-6.1,2.6-10,8.5-10,15.2v4.7c0,4.5,3.7,8.2,8.2,8.2h28.7V85.3C37.4,78.5,39.3,72.1,42.6,66.5z
	 M164.7,57.5c9,0,16.4-7.4,16.4-16.4c0-9-7.4-16.4-16.4-16.4c-9,0-16.4,7.4-16.4,16.4C148.2,50.1,155.6,57.5,164.7,57.5z
	 M197.5,85.6c0-6.6-3.9-12.6-10-15.2c-7-3-14.7-4.8-22.8-4.8c-3.2,0-6.2,0.3-9.3,0.8c3.3,5.6,5.2,12,5.2,18.8v13.2h28.7
	c4.5,0,8.2-3.7,8.2-8.2V85.6z M99,0c13.6,0,24.6,11,24.6,24.6s-11,24.6-24.6,24.6c-13.6,0-24.6-11-24.6-24.6S85.4,0,99,0z"/>
</svg>
